!!!SOCIAL_FUNCTION:	songs of war
!!!PDT:	1918

Specific Region: Dakotas, Minnesota, Montana, Nebraska
!!!REG: Dakotas and Montana
!!!LING_GROUP: Siouan
!!!LANG: Tone
!!!OTL@ENG: Song of the Camp
!!!ONM: No. 135
**kern
*Imale
*clefF4
*k[b-e-a-d-]
*M3/4
*MM80
8f
8c
=1
4f
8f
8g
8g
8f
=2
16f
8.c
4c
8c
8B-
=3
4.c
8f
16f
8.c
=4
16c
8.B-
4B-
8B-
8B-
=5
4.B-
8d-
16d-
8.B-
=6
4A-
4F
8A-
8B-
=7||
*M2/4
[4A-
8A-]
8B-
=8||
*M3/4
4A-
16A-
8.F
4E-
=9
4A-
8F
8A-
8F
8F
=10||
*M2/4
4.F
8F
=11
4F
4F
=12
4r
8c
8c
=13||
*M3/4
4c
4c
8c
8c
=14||
*M2/4
8c
8f
8f
8c
=15||
*M3/4
8c
8c
4c
8c
8B-
=16||
*M2/4
4c
4c
=17
4c
8c
8B-
=18||
*M3/4
4c
8c
8B-
8B-
8c
=19
8c
8B-
8A-
8A-
8B-
8A-
=20||
*M2/4
4B-
8A-
8A-
=21
8A-
8A-
8F
8F
=22
2F
=23
4F
4r
==
*-
!!!CNT: Native American -- Sioux
!!!MRD: 1911/07//-1914///
!!!OCL: Frances Densmore
!!!YOR1: Teton Sioux Music, Bulletin 61,
!!!YOR2: Bureau of American Ethnology, Smithsonian Institution
!!!PPR: Government Printing Office
!!!PPP: Washington, D.C.
!!!PDT: 1918///
!!!ENC: Craig Stuart Sapp
!!!END: 2002/03/25/
!!!EEV: 2002/03/31/
!!!AGN: War Song/Song of a Typical War Expedition
!!!MPN@@SIO: Shung'ka-wangbli'
!!!MPN@ENG: Dog Eagle
!!!TXO: Teton Sioux
!!!MLC: Standing Rock Reservation, South Dakota, United States of America
!!!ARL: 45.9/-100.7#
!!!catalog: Catalogue No. 657
!!!PPG: 349
!!!EFL: 139/245
!!!VTS: 200373465
